src/assets/images/map/markers/not_found/icon_30.svg

<?xml version="1.0" encoding="UTF-8" standalone="no"?>
<svg
   xmlns:dc="http://purl.org/dc/elements/1.1/"
   xmlns:cc="http://creativecommons.org/ns#"
   xmlns:rdf="http://www.w3.org/1999/02/22-rdf-syntax-ns#"
   xmlns:svg="http://www.w3.org/2000/svg"
   xmlns="http://www.w3.org/2000/svg"
   xmlns:sodipodi="http://sodipodi.sourceforge.net/DTD/sodipodi-0.dtd"
   xmlns:inkscape="http://www.inkscape.org/namespaces/inkscape"
   width="127pt"
   height="84pt"
   viewBox="0 0 127 84"
   version="1.1"
   id="svg5"
   sodipodi:docname="icon_30.svg"
   inkscape:version="0.92.1 r15371">
  <metadata
     id="metadata11">
    <rdf:RDF>
      <cc:Work
         rdf:about="">
        <dc:format>image/svg+xml</dc:format>
        <dc:type
           rdf:resource="http://purl.org/dc/dcmitype/StillImage" />
      </cc:Work>
    </rdf:RDF>
  </metadata>
  <defs
     id="defs9" />
  <sodipodi:namedview
     pagecolor="#ffffff"
     bordercolor="#666666"
     borderopacity="1"
     objecttolerance="10"
     gridtolerance="10"
     guidetolerance="10"
     inkscape:pageopacity="0"
     inkscape:pageshadow="2"
     inkscape:window-width="836"
     inkscape:window-height="480"
     id="namedview7"
     showgrid="false"
     inkscape:zoom="2.1071429"
     inkscape:cx="84.666667"
     inkscape:cy="56"
     inkscape:window-x="0"
     inkscape:window-y="0"
     inkscape:window-maximized="0"
     inkscape:current-layer="surface1" />
  <g
     id="surface1">
    <path
       style="fill:#00ff00;fill-opacity:1;fill-rule:nonzero;stroke:none"
       d="m 83.601562,6.832031 h -3.964843 v 19.648438 l -12.171875,3.132812 c -1.132813,0.378907 -1.699219,1.992188 -1.699219,4.839844 v 7.972656 C 54.0625,43.945312 44.71875,45.9375 37.734375,48.40625 l -18.402344,6.550781 -0.566406,-9.398437 -1.132813,-3.417969 -2.828124,-1.707031 -0.566407,0.285156 -0.285156,-0.285156 c -1.132813,0 -1.699219,1.328125 -1.699219,3.988281 l 0.285156,13.097656 c -0.945312,0.1875 -1.886718,0.664063 -2.832031,1.421875 C 7.820312,60.082031 6.875,61.316406 6.875,62.644531 l 4.8125,4.554688 V 71.1875 c 0,2.464844 0.566406,3.699219 1.699219,3.699219 h 0.851562 c 1.320313,0 2.359375,-0.566407 3.113281,-1.707031 l 1.132813,-3.132813 c 8.304687,3.039063 18.308594,4.9375 30.011719,5.695313 l 30.292968,1.425781 c 14.53125,0 24.628908,-2.089844 30.292968,-6.265625 4.15235,-3.039063 7.07813,-6.835938 8.77735,-11.390625 2.07421,-5.125 1.50781,-9.585938 -1.69922,-13.382813 -1.32032,-1.898437 -5.09766,-3.132812 -11.32422,-3.703125 L 89.546875,41.574219 V 28.757812 L 89.265625,25.910156 87.566406,25.34375 H 87 l -3.398438,0.566406 V 6.832031 m 0,-6.832031 c 1.886719,0 3.492188,0.664062 4.8125,1.992188 l 1.980469,4.839843 v 11.960938 c 3.964844,0.949219 5.949219,4.269531 5.949219,9.964843 v 6.550782 h 0.847656 l 14.437504,1.140625 c 4.71875,0.949219 8.11718,2.75 10.19531,5.410156 3.39453,4.554687 4.62109,9.679687 3.67969,15.375 C 124.55859,64.828125 120.5,71.28125 113.32813,76.597656 106.15625,81.53125 94.644531,84 78.789062,84 L 47.929688,82.578125 21.882812,78.304688 c -1.890624,2.277343 -4.4375,3.417968 -7.644531,3.417968 h -0.851562 c -2.074219,0 -3.867188,-0.664062 -5.378907,-1.992187 C 5.933594,77.640625 4.894531,74.792969 4.894531,71.1875 V 70.617188 C 1.683594,68.148438 0.0820312,65.492188 0.0820312,62.644531 0.0820312,59.039062 1.875,56 5.460938,53.53125 v -9.109375 l 1.699218,-7.121094 6.792969,-3.699219 h 0.851563 c 3.207031,0 6.039062,1.515626 8.492187,4.554688 1.320313,1.898438 2.078125,4.175781 2.265625,6.832031 v 0.570313 l 9.910156,-3.417969 23.496094,-5.691406 v -1.996094 c 0,-6.261719 2.078125,-9.964844 6.230469,-11.105469 L 72.84375,21.070312 V 6.832031 c 0,-1.894531 0.660156,-3.511719 1.980469,-4.839843 C 76.144531,0.664062 77.75,0 79.636719,0 h 3.964843"
       id="path2"
       inkscape:connector-curvature="0" />
  </g>
</svg>

<?xml version="1.0" encoding="UTF-8"?>
<svg xmlns="http://www.w3.org/2000/svg" xmlns:xlink="http://www.w3.org/1999/xlink" width="127pt" height="84pt" viewBox="0 0 127 84" version="1.1">
<g id="surface1">
<path style=" stroke:none;fill-rule:nonzero;fill:rgb(100%,100%,100%);fill-opacity:1;" d="M 83.601562 6.832031 L 79.636719 6.832031 L 79.636719 26.480469 L 67.464844 29.613281 C 66.332031 29.992188 65.765625 31.605469 65.765625 34.453125 L 65.765625 42.425781 C 54.0625 43.945312 44.71875 45.9375 37.734375 48.40625 L 19.332031 54.957031 L 18.765625 45.558594 L 17.632812 42.140625 L 14.804688 40.433594 L 14.238281 40.71875 L 13.953125 40.433594 C 12.820312 40.433594 12.253906 41.761719 12.253906 44.421875 L 12.539062 57.519531 C 11.59375 57.707031 10.652344 58.183594 9.707031 58.941406 C 7.820312 60.082031 6.875 61.316406 6.875 62.644531 L 11.6875 67.199219 L 11.6875 71.1875 C 11.6875 73.652344 12.253906 74.886719 13.386719 74.886719 L 14.238281 74.886719 C 15.558594 74.886719 16.597656 74.320312 17.351562 73.179688 L 18.484375 70.046875 C 26.789062 73.085938 36.792969 74.984375 48.496094 75.742188 L 78.789062 77.167969 C 93.320312 77.167969 103.417969 75.078125 109.082031 70.902344 C 113.234375 67.863281 116.160156 64.066406 117.859375 59.511719 C 119.933594 54.386719 119.367188 49.925781 116.160156 46.128906 C 114.839844 44.230469 111.0625 42.996094 104.835938 42.425781 L 89.546875 41.574219 L 89.546875 28.757812 L 89.265625 25.910156 L 87.566406 25.34375 L 87 25.34375 L 83.601562 25.910156 L 83.601562 6.832031 M 83.601562 0 C 85.488281 0 87.09375 0.664062 88.414062 1.992188 L 90.394531 6.832031 L 90.394531 18.792969 C 94.359375 19.742188 96.34375 23.0625 96.34375 28.757812 L 96.34375 35.308594 L 97.191406 35.308594 L 111.628906 36.449219 C 116.347656 37.398438 119.746094 39.199219 121.824219 41.859375 C 125.21875 46.414062 126.445312 51.539062 125.503906 57.234375 C 124.558594 64.828125 120.5 71.28125 113.328125 76.597656 C 106.15625 81.53125 94.644531 84 78.789062 84 L 47.929688 82.578125 L 21.882812 78.304688 C 19.992188 80.582031 17.445312 81.722656 14.238281 81.722656 L 13.386719 81.722656 C 11.3125 81.722656 9.519531 81.058594 8.007812 79.730469 C 5.933594 77.640625 4.894531 74.792969 4.894531 71.1875 L 4.894531 70.617188 C 1.683594 68.148438 0.0820312 65.492188 0.0820312 62.644531 C 0.0820312 59.039062 1.875 56 5.460938 53.53125 L 5.460938 44.421875 L 7.160156 37.300781 L 13.953125 33.601562 L 14.804688 33.601562 C 18.011719 33.601562 20.84375 35.117188 23.296875 38.15625 C 24.617188 40.054688 25.375 42.332031 25.5625 44.988281 L 25.5625 45.558594 L 35.472656 42.140625 L 58.96875 36.449219 L 58.96875 34.453125 C 58.96875 28.191406 61.046875 24.488281 65.199219 23.347656 L 72.84375 21.070312 L 72.84375 6.832031 C 72.84375 4.9375 73.503906 3.320312 74.824219 1.992188 C 76.144531 0.664062 77.75 0 79.636719 0 L 83.601562 0 "/>
</g>
</svg>
